img/svg/tab-icons/bars-graphic-ico.svg

<svg width="24" height="24" viewBox="0 0 24 24"  xmlns="http://www.w3.org/2000/svg">
<path d="M22.1252 18.8423V2.34357C22.1252 2.08521 21.9148 1.87482 21.6564 1.87482H19.5941C19.3356 1.87482 19.1254 2.08521 19.1254 2.34357V22.1234H23.0625C23.5803 22.1234 24 22.543 24 23.0607C24 23.5785 23.5803 23.9982 23.0625 23.9982H0.939331C0.421509 23.9982 0.00183105 23.5785 0.00183105 23.0607V16.3581C0.00183105 15.0659 1.05322 14.0145 2.3454 14.0145H4.40771C5.70007 14.0145 6.75128 15.0659 6.75128 16.3581V18.8423C6.75128 19.3601 6.3316 19.7798 5.81396 19.7798C5.29614 19.7798 4.87646 19.3601 4.87646 18.8423V16.3581C4.87646 16.0997 4.66626 15.8893 4.40771 15.8893H2.3454C2.08704 15.8893 1.87665 16.0997 1.87665 16.3581V22.1234H8.62628V9.84302C8.62628 8.55066 9.67749 7.49945 10.9698 7.49945H13.0322C14.3243 7.49945 15.3757 8.55066 15.3757 9.84302V18.8423C15.3757 19.3601 14.9561 19.7798 14.4382 19.7798C13.9206 19.7798 13.5007 19.3601 13.5007 18.8423V9.84302C13.5007 9.58447 13.2905 9.37427 13.0322 9.37427H10.9698C10.7113 9.37427 10.5011 9.58447 10.5011 9.84302V22.1234H17.2505V2.34357C17.2505 1.05139 18.3019 0 19.5941 0H21.6564C22.9486 0 24 1.05139 24 2.34357V18.8423C24 19.3601 23.5803 19.7798 23.0625 19.7798C22.5449 19.7798 22.1252 19.3601 22.1252 18.8423V18.8423ZM3.73444 8.38989H2.33844C2.10809 8.38989 1.87482 8.24506 1.87482 7.9682C1.87482 7.45038 1.45514 7.0307 0.9375 7.0307C0.419678 7.0307 0 7.45038 0 7.9682C0 9.22705 0.981812 10.2189 2.25073 10.2627V10.7803C2.25073 11.2982 2.67041 11.7178 3.18823 11.7178C3.70587 11.7178 4.12555 11.2982 4.12555 10.7803V10.2374C5.41516 10.0573 6.37646 8.9967 6.37646 7.67505V7.59302C6.37646 6.11993 5.19122 4.92151 3.73444 4.92151H2.87549C2.4483 4.92151 2.11359 4.5954 2.11359 4.17883V4.1109C2.11359 3.69122 2.44116 3.37482 2.87549 3.37482H3.68774C3.92651 3.37482 4.17334 3.53448 4.17334 3.802C4.17334 4.31982 4.5932 4.7395 5.11084 4.7395C5.62866 4.7395 6.04834 4.31982 6.04834 3.802C6.04834 2.67847 5.21869 1.74115 4.12555 1.54028V0.9375C4.12555 0.419678 3.70587 0 3.18823 0C2.67041 0 2.25073 0.419678 2.25073 0.9375V1.57251C1.78674 1.68201 1.36176 1.91327 1.01715 2.25055C0.515076 2.74182 0.23877 3.40247 0.23877 4.1109V4.17883C0.23877 4.8869 0.514526 5.5481 1.01532 6.04083C1.51062 6.52808 2.17126 6.79633 2.87549 6.79633H3.73444C4.15027 6.79633 4.50146 7.16125 4.50146 7.59302V7.67505C4.50146 8.08264 4.17169 8.38989 3.73444 8.38989Z"/>
</svg>

<svg width="24" height="24" xmlns="http://www.w3.org/2000/svg"><path d="M22.125 18.842V2.344a.47.47 0 00-.469-.47h-2.062a.47.47 0 00-.469.47v19.78h3.938a.937.937 0 110 1.874H.939a.937.937 0 01-.937-.937v-6.703a2.346 2.346 0 012.343-2.344h2.063a2.346 2.346 0 012.343 2.344v2.484a.937.937 0 11-1.875 0v-2.484a.47.47 0 00-.468-.469H2.345a.47.47 0 00-.468.47v5.764h6.75V9.843a2.346 2.346 0 012.343-2.344h2.062a2.346 2.346 0 012.344 2.344v9a.937.937 0 11-1.875 0v-9a.47.47 0 00-.469-.469H10.97a.47.47 0 00-.469.469v12.28h6.75V2.343A2.346 2.346 0 0119.593 0h2.062A2.346 2.346 0 0124 2.344v16.498a.937.937 0 11-1.875 0zM3.735 8.39H2.337c-.23 0-.463-.145-.463-.422a.937.937 0 10-1.875 0c0 1.26.982 2.25 2.25 2.295v.517a.937.937 0 101.876 0v-.543c1.29-.18 2.25-1.24 2.25-2.562v-.082c0-1.473-1.185-2.671-2.642-2.671h-.859a.744.744 0 01-.761-.743V4.11c0-.42.327-.736.761-.736h.813c.239 0 .485.16.485.427a.938.938 0 001.875 0c0-1.124-.83-2.06-1.922-2.262V.937a.937.937 0 10-1.875 0v.636c-.464.109-.89.34-1.234.678A2.58 2.58 0 00.24 4.11v.068c0 .708.276 1.37.776 1.862a2.634 2.634 0 001.86.755h.86c.415 0 .766.365.766.797v.082c0 .408-.33.715-.767.715z"/></svg>
